X:1
T:Title
%%score 1 2
L:1/8
Q:1/4=110
M:4/4
K:G
V:1 treble nm="Grand Piano, Soprano"
V:2 bass nm="Choir Pad, Cicero, Cornelius S. Meily"
V:1
 G>A [GB]2 [Gd]2 [DG]2 | [DG]2 [DF]2 [CE]4 | [Ge]>[Ge] [Gd]2 [GB]2 [DA]2 | [DG]2 [FA]6 | %4
w: By~Cornelius~S.~Meily,~1878 * * * *||||
 [DG]>[FA] [GB]2 [Gd]2 [GB]2 | [DG]2 [DF]2 [CE]4 | [Ge]>[Ge] [Fd]2 [Ec]2 [CE]2 | [CF]2 [B,G]6 | %8
w: ||||
 [DG]>[DF] [CE]2 [Ec]2 [DB]2- | [DB][CA] [CA]2 [B,G]2 z2 | G>[FA] [GB]2 [Ge]2 [Gd]2- | %11
w: |||
 [Gd][GB] [FA]6 | [DG]>[FA] [GB]2 [Gd]2 [GB]2 | [DG]2 [DF]2 [CE]4 | [Ge]>[Ge] [Fd]2 [Ec]2 [CE]2 | %15
w: ||||
 [CF]2 [B,G]6- | [B,G]2 z2 z4 |] %17
w: ||
V:2
 [G,B,]>C [G,D]2 [G,B,]2 [G,D]2 | [B,,G,]2 [C,G,]2 [C,G,]4 | [C,C]>[C,C] [G,B,]2 [G,D]2 [G,C]2 | %3
 [G,B,]2 [D,D]6 | [G,B,]>[G,C] [G,D]2 [G,B,]2 [G,D]2 | [B,,G,]2 [C,G,]2 [C,G,]4 | %6
 [C,C]>[C,C] [D,A,]2 [D,A,]2 [D,F,]2 | [D,A,]2 [G,,G,]6 | %8
 [B,,G,]>[B,,G,] [C,G,]2 [C,G,]2 [D,G,]2- | [D,G,][D,F,] [G,,G,]2 [G,,G,]2 z2 | %10
 [G,B,]>[G,C] [G,D]2 [G,C]2 [G,B,]2- | [G,B,][G,D] [D,D]6 | [G,B,]>[G,C] [G,D]2 [G,B,]2 [G,D]2 | %13
 [B,,G,]2 [C,G,]2 [C,G,]4 | [C,C]>[C,C] [D,A,]2 [D,A,]2 [D,F,]2 | [D,A,]2 [G,,G,]6- | %16
 [G,,G,]2 z2 z4 |] %17

